X:111
T:Reel 111
M:4/4
K:Gmaj
L:1/8
D2|G2dG BGdG|GABG AGAB|G2dG BGdG|cABG AGFD|G2dG BGdG|G2BG AGFA|GABc dgeg|fdcA G2|Bd|g2dg Bgdg|g2bg agef|g2dg Bgdg|egfa g2ga| (3bag af gfed|cBAB cdef|gfaf gfeg|ecAc BGGf|
